icons/text.svg

<svg fill="none" height="28" viewBox="0 0 28 28" width="28" xmlns="http://www.w3.org/2000/svg"><g fill="#fff"><path clip-rule="evenodd" d="m13.0079 4.09446c.3852.09383.6654.42648.6955.82181l.8327 11.07923-.001.0052s.0017.0092.0023.0151c.001.0129.0027.033.0045.0576.0038.0502.008.1251.015.2186.014.1883.0351.4586.0591.7813.0481.6467.1119 1.5115.176 2.3764.0641.8646.1275 1.7327.1756 2.3872.024.3265.0456.6014.0597.796.007.0966.0125.1751.0163.2298.0015.021.0069.1049.007.1513 0 .5057-.4096.9171-.9153.9172-.4421-.0003-.8113-.315-.8967-.732l-.0184-.1846-.004-.0246c-.0037-.0525-.0105-.1289-.0174-.2246-.014-.1935-.0322-.4688-.0562-.7953-.048-.6539-.1136-1.5215-.1777-2.3858-.0641-.8645-.1283-1.7281-.1764-2.3747-.0067-.0907-.0132-.1781-.0192-.2597l-6.13785-.2181c-.04161.0646-.08663.1359-.13512.2113-.25038.3894-.58494.9101-.91815 1.4335-.33373.5242-.66526 1.0499-.91231 1.4494-.12394.2004-.22408.3641-.29097.4786-.03396.058-.05405.0958-.06394.1146.00162-.0034.00406-.0089.00677-.0151l.00182-.0087c-.12938.3256-.43789.5636-.81048.5791-.50507.0203-.93156-.3736-.95221-.8787-.0069-.1748.03892-.3115.04402-.327.01428-.044.03044-.0803.03893-.0997.01781-.0406.03738-.0788.05089-.1045.02879-.0546.06585-.1195.10406-.1848.07856-.1344.18781-.3141.3137-.5177.25347-.4099.58909-.9434.92366-1.469.33523-.5265.67185-1.049.92311-1.4398.1256-.1953.23093-.3584.30426-.4721.03645-.0566.06443-.102.08406-.1324.00748-.0116.01405-.0216.01879-.029l6.64896-10.8145.0868-.11902c.2214-.25645.5727-.37334.9098-.29182zm-8.67548 16.26524c.00303-.0081.00789-.0172.01106-.027.00194-.006.01444-.0461.02565-.1061-.00849.0457-.02168.09-.03671.1331zm3.41227-5.4211 4.88651.1744-.542-7.23792z" fill-rule="evenodd"/><path d="m19.7101 9.4926c.9612-.32722 1.9866-.40813 3.2052-.00179 1.3566.45254 2.8173 1.96849 2.4789 4.22999-.3214 2.148-.7649 3.4433-1.3253 5.0975-.1075.3519-.2045.6453-.2611.8049-.0141.0396-.0277.0771-.0394.1073-.0042.011-.0166.0396-.0304.0697-.004.0088-.0103.0248-.0197.043-.0061.0118-.0293.0552-.0644.1055-.0153.0219-.0595.0847-.1305.1502-.0362.0334-.1062.0919-.2075.1431-.1003.0507-.2903.1233-.533.0912-.579-.0764-.7396-.5806-.7619-.6599-.0368-.1307-.0345-.239-.034-.2665.0014-.0749.0122-.1332.0143-.1449.004-.0223.0084-.0402.0107-.0501.0048-.0203.01-.0373.0125-.0465l.0018-.0107c-.0157.0045-.0307.0117-.0465.0161-.7926.2179-1.5654.1358-2.2804-.034-.6166-.1465-1.261-.4122-1.7582-.8943-.5239-.5081-.8224-1.1969-.8085-2.0319.0396-2.3283 2.3439-3.5921 4.3982-3.1854.6981.1382 1.4052.5716 1.9442 1.0856.0374-.2106.0746-.431.1091-.6617.1841-1.2334-.5857-2.0004-1.2484-2.2215-.8002-.2667-1.4131-.2136-2.0355-.0018-.4786.1627-.9978-.0937-1.1608-.5723-.1626-.4785.0924-.99759.5706-1.1608zm1.4649 5.3282c-1.2609-.2494-2.1959.5436-2.2107 1.4201-.0059.3448.1027.5419.2521.6869.1762.1706.4731.3244.9069.4274.5648.1342.9939.1534 1.37.0501.3597-.0989.7716-.3389 1.2502-.9068.0058-.0461.0148-.0893.0179-.1306.0106-.1404-.0922-.4714-.4829-.8692-.3725-.3792-.8172-.6212-1.1035-.6779z"/></g></svg>

<svg width="28" height="28" viewBox="0 0 28 28" fill="none" xmlns="http://www.w3.org/2000/svg">
<path fill-rule="evenodd" clip-rule="evenodd" d="M13.0079 4.09446C13.3931 4.18829 13.6733 4.52094 13.7034 4.91627L14.5361 15.9955L14.5351 16.0007C14.5351 16.0007 14.5368 16.0099 14.5374 16.0158C14.5384 16.0287 14.5401 16.0488 14.5419 16.0734C14.5457 16.1236 14.5499 16.1985 14.5569 16.292C14.5709 16.4803 14.592 16.7506 14.616 17.0733C14.6641 17.72 14.7279 18.5848 14.792 19.4497C14.8561 20.3143 14.9195 21.1824 14.9676 21.8369C14.9916 22.1634 15.0132 22.4383 15.0273 22.6329C15.0343 22.7295 15.0398 22.808 15.0436 22.8627C15.0451 22.8837 15.0505 22.9676 15.0506 23.014C15.0506 23.5197 14.641 23.9311 14.1353 23.9312C13.6932 23.9309 13.324 23.6162 13.2386 23.1992L13.2202 23.0146L13.2162 22.99C13.2125 22.9375 13.2057 22.8611 13.1988 22.7654C13.1848 22.5719 13.1666 22.2966 13.1426 21.9701C13.0946 21.3162 13.029 20.4486 12.9649 19.5843C12.9008 18.7198 12.8366 17.8562 12.7885 17.2096C12.7818 17.1189 12.7753 17.0315 12.7693 16.9499L6.63145 16.7318C6.58984 16.7964 6.54482 16.8677 6.49633 16.9431C6.24595 17.3325 5.91139 17.8532 5.57818 18.3766C5.24445 18.9008 4.91292 19.4265 4.66587 19.826C4.54193 20.0264 4.44179 20.1901 4.3749 20.3046C4.34094 20.3626 4.32085 20.4004 4.31096 20.4192C4.31258 20.4158 4.31502 20.4103 4.31773 20.4041L4.31955 20.3954C4.19017 20.721 3.88166 20.959 3.50907 20.9745C3.004 20.9948 2.57751 20.6009 2.55686 20.0958C2.54996 19.921 2.59578 19.7843 2.60088 19.7688C2.61516 19.7248 2.63132 19.6885 2.63981 19.6691C2.65762 19.6285 2.67719 19.5903 2.6907 19.5646C2.71949 19.51 2.75655 19.4451 2.79476 19.3798C2.87332 19.2454 2.98257 19.0657 3.10846 18.8621C3.36193 18.4522 3.69755 17.9187 4.03212 17.3931C4.36735 16.8666 4.70397 16.3441 4.95523 15.9533C5.08083 15.758 5.18616 15.5949 5.25949 15.4812C5.29594 15.4246 5.32392 15.3792 5.34355 15.3488C5.35103 15.3372 5.3576 15.3272 5.36234 15.3198L12.0113 4.5053L12.0981 4.38628C12.3195 4.12983 12.6708 4.01294 13.0079 4.09446ZM4.33242 20.3597C4.33545 20.3516 4.34031 20.3425 4.34348 20.3327C4.34542 20.3267 4.35792 20.2866 4.36913 20.2266C4.36064 20.2723 4.34745 20.3166 4.33242 20.3597ZM7.74469 14.9386L12.6312 15.113L12.0892 7.87508L7.74469 14.9386Z" fill="white"/>
<path d="M19.7101 9.4926C20.6713 9.16538 21.6967 9.08447 22.9153 9.49081C24.2719 9.94335 25.7326 11.4593 25.3942 13.7208C25.0728 15.8688 24.6293 17.1641 24.0689 18.8183C23.9614 19.1702 23.8644 19.4636 23.8078 19.6232C23.7937 19.6628 23.7801 19.7003 23.7684 19.7305C23.7642 19.7415 23.7518 19.7701 23.738 19.8002C23.734 19.809 23.7277 19.825 23.7183 19.8432C23.7122 19.855 23.689 19.8984 23.6539 19.9487C23.6386 19.9706 23.5944 20.0334 23.5234 20.0989C23.4872 20.1323 23.4172 20.1908 23.3159 20.242C23.2156 20.2927 23.0256 20.3653 22.7829 20.3332C22.2039 20.2568 22.0433 19.7526 22.021 19.6733C21.9842 19.5426 21.9865 19.4343 21.987 19.4068C21.9884 19.3319 21.9992 19.2736 22.0013 19.2619C22.0053 19.2396 22.0097 19.2217 22.012 19.2118C22.0168 19.1915 22.022 19.1745 22.0245 19.1653L22.0263 19.1546C22.0106 19.1591 21.9956 19.1663 21.9798 19.1707C21.1872 19.3886 20.4144 19.3065 19.6994 19.1367C19.0828 18.9902 18.4384 18.7245 17.9412 18.2424C17.4173 17.7343 17.1188 17.0455 17.1327 16.2105C17.1723 13.8822 19.4766 12.6184 21.5309 13.0251C22.229 13.1633 22.9361 13.5967 23.4751 14.1107C23.5125 13.9001 23.5497 13.6797 23.5842 13.449C23.7683 12.2156 22.9985 11.4486 22.3358 11.2275C21.5356 10.9608 20.9227 11.0139 20.3003 11.2257C19.8217 11.3884 19.3025 11.132 19.1395 10.6534C18.9769 10.1749 19.2319 9.65581 19.7101 9.4926ZM21.175 14.8208C19.9141 14.5714 18.9791 15.3644 18.9643 16.2409C18.9584 16.5857 19.067 16.7828 19.2164 16.9278C19.3926 17.0984 19.6895 17.2522 20.1233 17.3552C20.6881 17.4894 21.1172 17.5086 21.4933 17.4053C21.853 17.3064 22.2649 17.0664 22.7435 16.4985C22.7493 16.4524 22.7583 16.4092 22.7614 16.3679C22.772 16.2275 22.6692 15.8965 22.2785 15.4987C21.906 15.1195 21.4613 14.8775 21.175 14.8208Z" fill="white"/>
</svg>
